X: 3006
T: MISS WRIGHT OF LATON
Q:"Reel."
R: Reel.
%R:reel
B: James Kerr "Merry Melodies" v.3 p.3 #6
Z: 2016 John Chambers <jc:trillian.mit.edu>
M: C
L: 1/8
K: D
uf |\
d2(AG) FDAF | E=cGc E=CCE |\
d2(AG) FDAF | GE=cE D/D/D D ::\
g |\
a/g/f/e/ da fgaf |
g/f/e/d/ =cg efge |\
[1 afdf fgaf | ge=ce d/d/d d :|\
[2 fdge afbg | e=cge d/d/d d |]

%%sep 1 1 500
%%sep 1 1 500

